!!!OTL: 103. Freylekhs
!!!Genre:	Freylekhs
!!!Mode:	Freygish
!!!Listening/dance:	dance
!!!:	*F:
!!!One_Mode:	no
**kern
*part1
*staff1
*clefG2
*k[b-e-a-]
*G:frey
*M2/4
*>A
=1-
16gLL
16a-
16bn
16a-JJ
8gL
8gJ
=2
16gLL
16a-
16f
16a-JJ
8gL
8gJ
=3
16gLL
16a-
16bn
16a-JJ
8gL
8gJ
=4
16gLL
16a-
16f
16a-JJ
4g
*>bM
*F:
=5:|!
*>B
*k[b-]
!LO:TX:a:i:t=F-major
4a
24aLL
24b-
24aJ
16aL
16gJJ
=6
16gLL
16aJJ
4f
8f
=7
8b-L
8b-J
24b-LL
24cc
24b-J
16aL
16gJJ
=8
(<16aLL
16b-JJ)
4g
8f
=9
4a
24aLL
24b-
24aJ
16gL
16fJJ
=10
16gLL
16aJJ
4f
8f
*>eM
*G:frey
!LO:TX:a:i:t=G-freygish
=11
16eLL
16f
16g
16a-XJJ
16bnLL
16cc
16b
16a-JJ
=12
2g
*>bM
*F:
!LO:TX:a:i:t=F-major
=13||
4..cc
16bn
=14
4..cc
16bn
=15
(>8.ccL
16bnJk)
(>8.ccL
16bJk)
=16
8.ccL
16bnJk
4cc
=17!|:
*>C
16fLL
16g
16a
16b-XJJ
8aL
8aJ
=18
8gL
16gL
16fJJ
8aL
8aJ
=19
16fLL
16g
16a
16b-JJ
8aL
8aJ
=20
8gL
16gL
16eJJ
8fL
8cJ
=21:|!
16fLL
16g
16a
16b-JJ
8aL
8aJ
=22
8gL
16gL
16fJJ
8aL
8aJ
=23
16fLL
16g
16a
16b-JJ
8aL
8aJ
=24
8gL
16gL
16eJJ
4f
*>eM
==
*-
